X: 20603
Q: "With spirit."
M: 2/4
L: 1/8
K: G
e |\
dGGG | BGBe | dGGG | d2Bd |\
cAAA | cABA | cAAA | d2B |]\
dgga | gedg |
faeg | faeg |\
faeg | faef | g>aba | g2f |]\
e |\
dGGG | BGBe | dGGG | d2Bd |\
cAAA | cABA | cAAA | d2B |]


